;FLAVOR:UltiGCode
;TIME:1346
;MATERIAL:5357
;MATERIAL2:0
;NOZZLE_DIAMETER:0.8
;MINX:68.729
;MINY:68.729
;MINZ:0.53
;MAXX:154.271
;MAXY:154.271
;MAXZ:3.33
;POSTPROCESSED
;Generated with Cura_SteamEngine 4.2.1
M82 ;absolute extrusion mode

G92 E0
G92 E0
G10
;LAYER_COUNT:15
;LAYER:0
M107
G0 F5400 X70.108 Y69.925 Z0.53
;TYPE:SKIRT
G11
G1 F1800 X70.379 Y69.698 E0.13115
G1 X70.585 Y69.543 E0.2268
G1 X71.021 Y69.265 E0.41864
G1 X71.363 Y69.107 E0.5584
G1 X71.572 Y69.024 E0.64183
G1 X72.299 Y68.826 E0.92138
G1 X72.618 Y68.777 E1.04111
G1 X73.021 Y68.74 E1.19125
G1 X73.305 Y68.731 E1.29667
G1 X73.411 Y68.729 E1.336
G1 X149.262 Y68.729 E29.47672
G1 X149.96 Y68.739 E29.73571
G1 X150.475 Y68.787 E29.9276
G1 X150.822 Y68.865 E30.05955
G1 X151.339 Y69.011 E30.25886
G1 X151.825 Y69.19 E30.45101
G1 X152.277 Y69.441 E30.64282
G1 X152.501 Y69.603 E30.74538
G1 X152.675 Y69.74 E30.82754
G1 X153.056 Y70.09 E31.01948
G1 X153.245 Y70.312 E31.12765
G1 X153.422 Y70.539 E31.23444
G1 X153.707 Y70.97 E31.42614
G1 X153.892 Y71.36 E31.58628
G1 X153.976 Y71.571 E31.67054
G1 X154.176 Y72.305 E31.95278
G1 X154.224 Y72.62 E32.071
G1 X154.26 Y73.025 E32.22184
G1 X154.268 Y73.292 E32.32095
G1 X154.27 Y73.392 E32.35805
G1 X154.271 Y149.185 E60.47726
G1 X154.271 Y149.231 E60.49432
G1 X154.261 Y149.957 E60.76369
G1 X154.222 Y150.42 E60.93607
G1 X154.182 Y150.68 E61.03367
G1 X154.064 Y151.184 E61.22571
G1 X153.958 Y151.472 E61.33957
G1 X153.851 Y151.726 E61.44182
G1 X153.614 Y152.185 E61.63347
G1 X153.402 Y152.49 E61.77127
G1 X153.247 Y152.688 E61.86456
G1 X152.897 Y153.069 E62.0565
G1 X152.627 Y153.297 E62.18761
G1 X152.419 Y153.454 E62.28429
G1 X151.984 Y153.733 E62.47602
G1 X151.637 Y153.893 E62.61778
G1 X151.428 Y153.976 E62.70121
G1 X150.701 Y154.174 E62.98075
G1 X150.382 Y154.223 E63.10049
G1 X149.979 Y154.26 E63.25063
G1 X149.695 Y154.269 E63.35605
G1 X149.589 Y154.271 E63.39538
G1 X73.738 Y154.271 E91.5361
G1 X73.041 Y154.261 E91.79472
G1 X72.58 Y154.222 E91.96636
G1 X72.32 Y154.182 E92.06396
G1 X71.816 Y154.064 E92.256
G1 X71.523 Y153.956 E92.37185
G1 X71.268 Y153.848 E92.47459
G1 X70.808 Y153.61 E92.66674
G1 X70.517 Y153.407 E92.79837
G1 X70.319 Y153.253 E92.89143
G1 X69.937 Y152.905 E93.08315
G1 X69.696 Y152.619 E93.2219
G1 X69.54 Y152.411 E93.31836
G1 X69.262 Y151.974 E93.51051
G1 X69.108 Y151.64 E93.64696
G1 X69.024 Y151.429 E93.73122
G1 X68.824 Y150.692 E94.01454
G1 X68.776 Y150.375 E94.13348
G1 X68.739 Y149.969 E94.28473
G1 X68.73 Y149.656 E94.40091
G1 X68.729 Y149.56 E94.43652
G1 X68.729 Y73.724 E122.57168
G1 X68.739 Y73.033 E122.82807
G1 X68.78 Y72.556 E123.00569
G1 X68.82 Y72.304 E123.10035
G1 X68.941 Y71.801 E123.29229
G1 X69.042 Y71.528 E123.40028
G1 X69.149 Y71.274 E123.50253
G1 X69.386 Y70.815 E123.69418
G1 X69.601 Y70.506 E123.83384
G1 X69.758 Y70.306 E123.92817
G1 X70.108 Y69.925 E124.12011
G10
;MESH:All-Seeing-Eye_TestPrint_09.stl
G0 F5400 X73.148 Y73.161
G0 X73.49 Y93.034
G0 X74.014 Y94.359
G0 X75.333 Y95.047
G0 X76.778 Y94.688
G0 X79.56 Y91.755
;TYPE:WALL-INNER
G11
G1 F1800 X79.872 Y92.351 E124.36969
G1 X79.881 Y92.361 E124.37468
G1 X80.312 Y92.853 E124.61735
G1 X80.862 Y93.233 E124.86537
G1 X81.228 Y93.373 E125.01075
G1 X80.899 Y94.221 E125.3482
G1 X80.87 Y94.297 E125.37838
G1 X80.806 Y94.461 E125.44369
G1 X80.361 Y94.099 E125.583
G1 X80.287 Y94.065 E125.61079
G1 X79.753 Y93.813 E125.82985
G1 X79.104 Y93.684 E126.07534
G1 X79.095 Y93.683 E126.0787
G1 X78.433 Y93.714 E126.32457
G1 X78.262 Y93.764 E126.39067
G1 X78.324 Y93.654
G1 X78.498 Y93.346 E126.47959
G1 X78.502 Y93.338 E126.48291
G1 X78.917 Y92.604 E126.79573
G1 X79.288 Y92.005 E127.05713
G1 X79.295 Y91.994
G1 X79.475 Y91.703 E127.11008
G1 X79.528 Y91.618 E127.14724
G1 X79.56 Y91.755
G0 F5400 X75.924 Y95.707
G1 F1800 X76.246 Y95.625 E127.27052
G1 X76.168 Y95.81 E127.27248
G1 X76.04 Y96.112 E127.39417
G1 X75.561 Y97.241 E127.84916
G1 X74.755 Y99.467 E128.72748
G1 X74.519 Y100.269 E129.03764
G1 X74.087 Y101.743 E129.60749
G1 X73.829 Y102.874 E130.03787
G1 X73.829 Y101.743 E130.11308
G1 X73.829 Y100.206 E130.50521
G1 X73.829 Y95.665 E132.18992
G1 X73.829 Y95.244 E132.34611
G1 X73.829 Y95.079 E132.40733
G1 X74.016 Y95.244 E132.43884
G1 X74.39 Y95.437 E132.54608
G1 X74.609 Y95.551 E132.63768
G1 X75.255 Y95.708 E132.88432
G1 X75.595 Y95.707 E133.01046
G1 X75.924 Y95.707 E133.10092
G0 F5400 X74.206 Y104.188
G0 X73.828 Y106.484
G0 X73.593 Y108.795
G0 X73.498 Y111.145
G0 X73.546 Y113.464
G0 X74.528 Y122.826
G1 F1800 X75.293 Y125.071 E133.98084
G1 X76.041 Y126.89 E134.71052
G1 X76.165 Y127.193 E134.83198
G1 X76.195 Y127.266 E134.86127
G1 X76.248 Y127.375 E134.90623
G1 X76.173 Y127.356
G1 X75.924 Y127.293 E134.95833
G1 X75.596 Y127.293 E135.04831
G1 X75.255 Y127.292 E135.17482
G1 X74.609 Y127.449 E135.42146
G1 X74.39 Y127.563 E135.51306
G1 X74.016 Y127.756 E135.6692
G1 X73.829 Y127.921 E135.76172
G1 X73.829 Y127.756 E135.76202
G1 X73.829 Y127.335 E135.86941
G1 X73.829 Y122.827 E137.54188
G1 X73.829 Y122.824 E137.54299
G1 X73.829 Y120.537 E138.39147
G1 X73.829 Y120.172 E138.52688
G1 X73.905 Y120.537 E138.53632
G1 X74.528 Y122.824 E139.0334
G1 X74.528 Y122.826 E139.03414
G0 F5400 X77.815 Y129.097
G0 X78.95 Y131.119
G0 X80.224 Y133.09
G0 X81.603 Y134.965
G0 X83.098 Y136.753
G0 X84.703 Y138.449
G0 X86.408 Y140.042
G0 X91.423 Y144.159
G0 X94.313 Y145.807
G0 X95.244 Y148.984
G1 F1800 X95.437 Y148.61 E139.19028
G1 X95.551 Y148.391 E139.28188
G1 X95.708 Y147.745 E139.52852
G1 X95.707 Y147.379 E139.66431
G1 X95.707 Y147.076 E139.77672
G1 X95.678 Y146.959 E139.82144
G1 X95.623 Y146.745 E139.90342
G1 X95.82 Y146.838 E139.92013
G1 X95.934 Y146.893 E139.92831
G1 X96.215 Y147.006 E140.04068
G1 X98.135 Y147.782 E140.80898
G1 X100.208 Y148.473 E141.61966
G1 X100.386 Y148.532 E141.68923
G1 X102.678 Y149.145 E142.56945
G1 X102.807 Y149.171 E142.61827
G1 X102.678 Y149.171 E142.61898
G1 X100.386 Y149.171 E143.01899
G1 X100.198 Y149.171 E143.08575
G1 X95.665 Y149.171 E144.76749
G1 X95.244 Y149.171 E144.87488
G1 X95.079 Y149.171 E144.9361
G1 X95.244 Y148.984 E144.96761
G0 F5400 X96.197 Y146.287
G0 X94.093 Y145.283
G0 X92.053 Y144.152
G0 X90.094 Y142.902
G0 X88.206 Y141.529
G0 X86.408 Y140.042
G0 X84.703 Y138.449
G0 X83.098 Y136.753
G0 X81.603 Y134.965
G0 X80.224 Y133.09
G0 X78.95 Y131.119
G0 X77.815 Y129.097
G0 X76.801 Y127.003
G0 X75.908 Y124.829
G0 X75.162 Y122.638
G0 X74.549 Y120.382
G0 X74.07 Y118.088
G0 X73.739 Y115.8
G0 X73.546 Y113.464
G0 X73.498 Y111.145
G0 X73.593 Y108.795
G0 X73.828 Y106.484
G0 X74.206 Y104.188
G0 X74.724 Y101.921
G0 X75.386 Y99.663
G0 X76.172 Y97.492
G0 X77.011 Y95.515
G0 X78.056 Y94.513
G0 X79.543 Y94.445
G0 X80.667 Y95.337
G0 X110.392 Y146.826
G0 X111.519 Y146.667
G1 F1800 X111.181 Y146.668 E145.09301
G1 X111.518 Y146.492 E145.12087
G1 X111.894 Y146.666 E145.26825
G1 X111.519 Y146.667 E145.2824
G0 F5400 X113.787 Y144.787
G0 X142.333 Y95.337
G0 X143.457 Y94.445
G0 X144.944 Y94.513
G0 X146.1 Y95.775
G0 X147.001 Y97.931
G0 X147.773 Y100.156
G0 X148.4 Y102.401
G0 X148.886 Y104.668
G0 X149.234 Y106.966
G0 X149.443 Y109.312
G0 X149.503 Y111.63
G0 X149.422 Y113.972
G0 X149.202 Y116.272
G0 X148.838 Y118.587
G0 X148.329 Y120.873
G0 X147.692 Y123.095
G0 X146.908 Y125.305
G0 X145.994 Y127.451
G0 X144.957 Y129.525
G0 X143.783 Y131.55
G0 X142.486 Y133.504
G0 X141.093 Y135.346
G0 X139.564 Y137.126
G0 X137.949 Y138.789
G0 X136.214 Y140.372
G0 X134.404 Y141.827
G0 X132.499 Y143.177
G0 X130.51 Y144.408
G0 X127.293 Y147.076
G1 F1800 X127.293 Y147.096 E145.28982
G1 X127.293 Y147.102 E145.29204
G1 X127.292 Y147.745 E145.5306
G1 X127.449 Y148.391 E145.77724
G1 X127.563 Y148.61 E145.86884
G1 X127.756 Y148.984 E146.02498
G1 X127.921 Y149.171 E146.1175
G1 X127.756 Y149.171 E146.1178
G1 X127.335 Y149.171 E146.22519
G1 X122.785 Y149.171 E147.91324
G1 X122.13 Y149.171 E148.15624
G1 X120.173 Y149.171 E148.88229
G1 X122.13 Y148.675 E149.15856
G1 X122.754 Y148.476 E149.36652
G1 X124.39 Y147.954 E150.00362
G1 X126.597 Y147.097 E150.88198
G1 X126.602 Y147.095 E150.88393
G1 X127.179 Y146.83 E151.08212
G1 X127.379 Y146.737 E151.16395
G1 X127.293 Y147.076 E151.21605
G0 F5400 X129.876 Y144.73
G0 X132.499 Y143.177
G0 X134.404 Y141.827
G0 X136.214 Y140.372
G0 X137.949 Y138.789
G0 X139.564 Y137.126
G0 X141.093 Y135.346
G0 X142.486 Y133.504
G0 X143.783 Y131.55
G0 X144.775 Y129.777
G0 X147.076 Y127.293
G1 F1800 X146.743 Y127.378 E151.34356
G1 X146.824 Y127.187 E151.34614
G1 X146.95 Y126.89 E151.46584
G1 X147.524 Y125.542 E152.0094
G1 X148.318 Y123.307 E152.88935
G1 X148.48 Y122.743 E153.10706
G1 X148.973 Y121.027 E153.76945
G1 X149.17 Y120.138 E154.10727
G1 X149.17 Y121.027 E154.15208
G1 X149.17 Y122.813 E154.57902
G1 X149.17 Y127.334 E156.25631
G1 X149.17 Y127.756 E156.41288
G1 X149.17 Y127.92 E156.47372
G1 X148.984 Y127.756 E156.50484
G1 X148.609 Y127.562 E156.61235
G1 X148.391 Y127.449 E156.70345
G1 X147.745 Y127.292 E156.95009
G1 X147.399 Y127.293 E157.07846
G1 X147.076 Y127.293 E157.16785
G0 F5400 X148.838 Y118.587
G0 X149.202 Y116.272
G0 X149.422 Y113.972
G0 X149.503 Y111.63
G0 X149.443 Y109.312
G0 X149.234 Y106.966
G0 X148.953 Y105.105
G0 X147.076 Y95.707
G1 F1800 X147.402 Y95.707 E157.2888
G1 X147.745 Y95.708 E157.41605
G1 X148.391 Y95.551 E157.66269
G1 X148.609 Y95.438 E157.75379
G1 X148.984 Y95.244 E157.91043
G1 X149.17 Y95.08 E158.00243
G1 X149.17 Y95.244 E158.00263
G1 X149.17 Y95.666 E158.11009
G1 X149.17 Y100.16 E159.77736
G1 X149.17 Y102.232 E160.54607
G1 X149.17 Y102.841 E160.77201
G1 X149.039 Y102.232 E160.79684
G1 X148.481 Y100.237 E161.25582
G1 X148.4 Y99.948 E161.36717
G1 X147.622 Y97.705 E162.24796
G1 X146.956 Y96.109 E162.88956
G1 X146.831 Y95.809 E162.97895
G1 X146.754 Y95.625 E163.05295
G1 X147.076 Y95.707 E163.10413
G0 F5400 X143.44 Y91.755
G1 F1800 X143.472 Y91.616 E163.15705
G1 X143.525 Y91.7
G1 X143.705 Y91.983 E163.27239
G1 X143.71 Y91.991 E163.27589
G1 X143.831 Y92.18 E163.35915
G1 X144.479 Y93.337 E163.85113
G1 X144.489 Y93.355 E163.85877
G1 X144.661 Y93.661 E163.989
G1 X144.715 Y93.757 E164.02987
G1 X144.567 Y93.714
G1 X143.905 Y93.683 E164.20133
G1 X143.885 Y93.687 E164.20876
G1 X143.247 Y93.813 E164.45003
G1 X142.714 Y94.064 E164.6686
G1 X142.639 Y94.099 E164.6993
G1 X142.199 Y94.456 E164.90952
G1 X142.138 Y94.306
G1 X142.107 Y94.23 E164.93748
G1 X141.761 Y93.389 E165.27486
G1 X141.757 Y93.379 E165.27886
G1 X142.138 Y93.233 E165.3766
G1 X142.688 Y92.853 E165.62462
G1 X143.122 Y92.358 E165.86885
G1 X143.128 Y92.351 E165.87224
G1 X143.349 Y91.928 E166.00919
G1 X143.44 Y91.755 E166.02384
G0 F5400 X142.803 Y90.028
G0 X141.314 Y87.932
G0 X139.806 Y86.142
G0 X138.205 Y84.459
G0 X136.52 Y82.893
G0 X134.709 Y81.407
G0 X132.847 Y80.056
G0 X130.868 Y78.802
G0 X127.293 Y75.924
G1 F1800 X127.313 Y76.003 E166.05407
G1 X127.377 Y76.256 E166.15089
G1 X127.18 Y76.162 E166.16318
G1 X127.01 Y76.081 E166.18605
G1 X126.752 Y75.977 E166.28925
G1 X124.817 Y75.2 E167.06285
G1 X122.789 Y74.526 E167.8557
G1 X122.576 Y74.456 E167.93888
G1 X120.293 Y73.848 E168.8154
G1 X120.199 Y73.829 E168.85098
G1 X120.293 Y73.829 E168.85145
G1 X122.576 Y73.829 E169.23828
G1 X122.801 Y73.829 E169.31747
G1 X127.335 Y73.829 E170.99959
G1 X127.756 Y73.829 E171.15578
G1 X127.921 Y73.829 E171.21699
G1 X127.756 Y74.016 E171.24851
G1 X127.563 Y74.39 E171.35574
G1 X127.449 Y74.609 E171.44734
G1 X127.292 Y75.255 E171.69398
G1 X127.293 Y75.645 E171.83867
G1 X127.293 Y75.924 E171.92191
G0 F5400 X117.872 Y74.034
G0 X113.571 Y73.495
G0 X110.008 Y73.493
G0 X107.91 Y73.665
G0 X105.854 Y73.923
G0 X95.707 Y75.924
G1 F1800 X95.707 Y75.59 E172.04582
G1 X95.708 Y75.255 E172.17011
G1 X95.551 Y74.609 E172.41675
G1 X95.437 Y74.39 E172.50835
G1 X95.244 Y74.016 E172.66449
G1 X95.079 Y73.829 E172.75701
G1 X95.244 Y73.829 E172.75731
G1 X95.665 Y73.829 E172.8647
G1 X100.215 Y73.829 E174.55275
G1 X100.907 Y73.829 E174.80948
G1 X102.826 Y73.829 E175.52143
G1 X100.907 Y74.314 E175.78674
G1 X100.248 Y74.523 E176.00426
G1 X98.655 Y75.03 E176.62448
G1 X96.451 Y75.882 E177.50113
G1 X96.124 Y76.032 E177.6346
G1 X95.821 Y76.171 E177.72643
G1 X95.62 Y76.264 E177.8086
G1 X95.707 Y75.924 E177.86087
G0 F5400 X94.605 Y77.458
G0 X92.551 Y78.556
G0 X90.574 Y79.775
G0 X88.669 Y81.119
G0 X86.868 Y82.558
G0 X85.148 Y84.116
G0 X83.52 Y85.781
G0 X81.992 Y87.548
G0 X80.59 Y89.389
G0 X80.068 Y91.023
G0 X80.756 Y92.355
G0 X82.081 Y92.878
G0 X111.413 Y93.211
G0 X111.413 Y105.846
G0 X103.637 Y107.757
G0 X101.664 Y108.378
G0 X99.74 Y109.133
G0 X97.89 Y110.011
G0 X96.087 Y111.026
G0 X93.591 Y112.69
G0 X93.842 Y114.085
G0 X97.038 Y114.844
G0 X99.992 Y115.419
G0 X102.948 Y115.861
G0 X107.008 Y116.266
G0 X110.092 Y116.398
G0 X111.805 Y114.731
G1 F1800 X111.499 Y115.29 E178.0973
G1 X111.193 Y114.731 E178.22999
G1 X110.863 Y114.129 E178.48469
G1 X110.82 Y113.976 E178.54365
G1 X110.814 Y113.821 E178.6012
G1 X110.844 Y113.664 E178.6605
G1 X110.905 Y113.526 E178.71647
G1 X111.007 Y113.392 E178.77895
G1 X111.123 Y113.296 E178.83481
G1 X111.267 Y113.224 E178.89454
G1 X111.421 Y113.188 E178.95322
G1 X111.579 Y113.188 E179.01184
G1 X111.734 Y113.225 E179.07096
G1 X111.877 Y113.296 E179.13019
G1 X111.993 Y113.392 E179.18605
G1 X112.095 Y113.526 E179.24853
G1 X112.156 Y113.664 E179.30451
G1 X112.186 Y113.821 E179.36381
G1 X112.18 Y113.974 E179.42061
G1 X112.137 Y114.126 E179.47922
G1 X111.805 Y114.731 E179.73525
G0 F5400 X110.092 Y116.398
G0 X108.502 Y117.1
G1 F1800 X108.495 Y117.057 E179.75141
G1 X108.486 Y117.003 E179.77172
G1 X108.505 Y117.003
G1 X108.753 Y117.014 E179.82446
G1 X110.453 Y117.079 E180.45562
G1 X111.203 Y115.87 E180.98345
G1 X111.204 Y115.869 E180.98398
G1 X111.502 Y115.388 E181.1939
G1 X111.798 Y115.871 E181.31458
G1 X112.538 Y117.075 E181.83889
G1 X114.54 Y117.002 E182.58212
G1 X114.555 Y117.001 E182.5877
G1 X114.543 Y117.086 E182.6037
G1 X114.562 Y117.085
G1 X119.345 Y116.613 E184.38681
G1 X122.338 Y116.201 E185.50768
G1 X125.315 Y115.658 E186.63037
G1 X125.843 Y115.537 E186.83134
G1 X125.933 Y115.517 E186.86554
G1 X127.045 Y115.263 E187.28872
G1 X128.235 Y114.99 E187.74168
G1 X129.735 Y114.633 E188.31372
G1 X130.051 Y112.883 E188.97347
G1 X130.06 Y112.837 E188.99086
G1 X130.512 Y112.965 E189.1064
G1 X131.173 Y112.992 E189.35183
G1 X131.406 Y112.944 E189.44009
G1 X131.327 Y113.08
G1 X130.257 Y114.934 E190.23426
G1 X129.599 Y116.074 E190.72259
G1 X128.28 Y115.178 E191.31417
G1 X127.089 Y115.454 E191.44033
G1 X126.082 Y116.167 E191.73195
G1 X126.005 Y116.218 E191.7654
G1 X125.164 Y116.774 E192.13943
G1 X124.449 Y117.202 E192.44859
G1 X123.473 Y117.745 E192.86296
G1 X122.694 Y118.134 E193.18599
G1 X121.71 Y118.588 E193.58804
G1 X120.706 Y118.998 E193.99039
G1 X119.893 Y119.293 E194.31125
G1 X118.942 Y119.602 E194.68223
G1 X117.654 Y119.952 E195.17741
G1 X116.141 Y120.279 E195.75169
G1 X115.302 Y120.421 E196.06739
G1 X113.956 Y120.582 E196.57031
G1 X113.186 Y120.65 E196.85709
G1 X112.109 Y120.689 E197.25692
G1 X111.067 Y120.7 E197.64353
G1 X109.857 Y120.649 E198.09283
G1 X109.252 Y120.604 E198.31791
G1 X107.69 Y120.419 E198.90146
G1 X107.089 Y120.32 E199.12744
G1 X105.539 Y120.001 E199.71454
G1 X104.045 Y119.598 E200.28863
G1 X103.328 Y119.368 E200.56798
G1 X102.272 Y118.99 E200.9841
G1 X101.511 Y118.68 E201.28896
G1 X100.488 Y118.226 E201.70419
G1 X99.538 Y117.751 E202.09824
G1 X98.742 Y117.314 E202.43513
G1 X97.834 Y116.772 E202.82745
G1 X97.092 Y116.288 E203.15612
G1 X96.893 Y116.147 E203.2466
G1 X96.594 Y115.937 E203.38216
G1 X95.83 Y115.398 E203.72904
G1 X94.264 Y115.205 E204.31442
G1 X93.48 Y116.21 E204.78731
G1 X92.745 Y114.937 E205.33266
G1 X91.673 Y113.08 E206.12816
G1 X91.594 Y112.944 E206.18652
G1 X91.826 Y112.992 E206.21564
G1 X92.488 Y112.966 E206.46143
G1 X92.94 Y112.837 E206.63582
G1 X92.948 Y112.882
G1 X93.265 Y114.635 E207.29673
G1 X94.338 Y114.887 E207.70564
G1 X95.865 Y115.247 E207.90489
G1 X96.906 Y115.492 E208.11861
G1 X97.265 Y115.561 E208.23936
G1 X99.871 Y116.069 E209.22439
G1 X102.864 Y116.517 E210.34716
G1 X108.476 Y117.097 E212.4403
G1 X108.502 Y117.1
G0 F5400 X107.665 Y116.31
G1 F1800 X107.655 Y116.248 E212.4636
G1 X107.669 Y116.249
G1 X108.077 Y116.284 E212.60764
G1 X108.782 Y116.315 E212.86945
