;FLAVOR:UltiGCode
;TIME:2208
;MATERIAL:3549
;MATERIAL2:0
;NOZZLE_DIAMETER:0.4
;MINX:87
;MINY:79.375
;MINZ:0.27
;MAXX:136
;MAXY:135.55
;MAXZ:17.37
;POSTPROCESSED
;Generated with Cura_SteamEngine 4.2.1
M82 ;absolute extrusion mode

G92 E0
G92 E0
G10
;LAYER_COUNT:115
;LAYER:0
M107
G0 F4500 X103.966 Y82.141 Z0.27
;TYPE:SKIRT
G11
G1 F1800 X104.51 Y81.564 E0.07494
G1 X105.11 Y81.045 E0.14991
G1 X105.759 Y80.588 E0.22492
G1 X106.451 Y80.2 E0.29989
G1 X107.178 Y79.882 E0.37488
G1 X107.934 Y79.64 E0.44989
G1 X108.71 Y79.475 E0.52486
G1 X109.499 Y79.388 E0.59987
G1 X109.959 Y79.375 E0.64336
G1 X113.042 Y79.375 E0.9347
G1 X113.834 Y79.415 E1.00964
G1 X114.619 Y79.534 E1.08467
G1 X115.387 Y79.732 E1.15962
G1 X116.132 Y80.007 E1.23467
G1 X116.845 Y80.354 E1.3096
G1 X117.52 Y80.772 E1.38463
G1 X118.149 Y81.255 E1.45957
G1 X118.726 Y81.8 E1.53458
G1 X119.246 Y82.399 E1.60954
G1 X119.702 Y83.048 E1.68449
G1 X120.091 Y83.74 E1.75951
G1 X120.409 Y84.467 E1.8345
G1 X120.652 Y85.223 E1.90954
G1 X120.817 Y85.999 E1.98451
G1 X120.903 Y86.787 E2.05942
G1 X120.917 Y87.248 E2.103
G1 X120.918 Y90.748 E2.43375
G1 X120.878 Y91.54 E2.50869
G1 X120.759 Y92.325 E2.58372
G1 X120.561 Y93.093 E2.65867
G1 X120.287 Y93.838 E2.73369
G1 X119.94 Y94.551 E2.80862
G1 X119.522 Y95.226 E2.88365
G1 X119.039 Y95.855 E2.95859
G1 X118.495 Y96.433 E3.0336
G1 X117.895 Y96.952 E3.10857
G1 X117.247 Y97.409 E3.1835
G1 X116.555 Y97.798 E3.25852
G1 X115.828 Y98.116 E3.33351
G1 X115.073 Y98.359 E3.40846
G1 X114.297 Y98.525 E3.48345
G1 X113.508 Y98.611 E3.55845
G1 X113.043 Y98.625 E3.60241
G1 X109.958 Y98.625 E3.89395
G1 X109.166 Y98.585 E3.96888
G1 X108.381 Y98.466 E4.04391
G1 X107.613 Y98.268 E4.11886
G1 X106.868 Y97.993 E4.19391
G1 X106.155 Y97.646 E4.26884
G1 X105.48 Y97.228 E4.34387
G1 X104.851 Y96.745 E4.41882
G1 X104.274 Y96.2 E4.49382
G1 X103.754 Y95.601 E4.56878
G1 X103.298 Y94.952 E4.64373
G1 X102.909 Y94.26 E4.71875
G1 X102.591 Y93.533 E4.79374
G1 X102.348 Y92.777 E4.86878
G1 X102.183 Y92.001 E4.94375
G1 X102.097 Y91.213 E5.01866
G1 X102.083 Y90.748 E5.06262
G1 X102.084 Y87.248 E5.39337
G1 X102.124 Y86.455 E5.46841
G1 X102.244 Y85.671 E5.54336
G1 X102.442 Y84.903 E5.61831
G1 X102.716 Y84.158 E5.69332
G1 X103.064 Y83.445 E5.7683
G1 X103.482 Y82.77 E5.84332
G1 X103.966 Y82.141 E5.91832
G0 F4500 X104.312 Y82.276
G1 F1800 X104.854 Y81.721 E5.99163
G1 X105.45 Y81.225 E6.06491
G1 X106.095 Y80.793 E6.13827
G1 X106.78 Y80.43 E6.21153
G1 X107.499 Y80.139 E6.28483
G1 X108.244 Y79.923 E6.35813
G1 X109.007 Y79.785 E6.4314
G1 X109.959 Y79.725 E6.52155
G1 X113.042 Y79.725 E6.81289
G1 X113.817 Y79.765 E6.88622
G1 X114.583 Y79.884 E6.95948
G1 X115.333 Y80.082 E7.03278
G1 X116.059 Y80.356 E7.10611
G1 X116.752 Y80.703 E7.17935
G1 X117.406 Y81.12 E7.25265
G1 X118.014 Y81.602 E7.32597
G1 X118.569 Y82.144 E7.39928
G1 X119.066 Y82.74 E7.47261
G1 X119.498 Y83.384 E7.5459
G1 X119.861 Y84.069 E7.61916
G1 X120.153 Y84.788 E7.69249
G1 X120.368 Y85.533 E7.76577
G1 X120.506 Y86.296 E7.83904
G1 X120.567 Y87.248 E7.92919
G1 X120.568 Y90.748 E8.25994
G1 X120.528 Y91.522 E8.33318
G1 X120.409 Y92.289 E8.40653
G1 X120.211 Y93.039 E8.47983
G1 X119.938 Y93.765 E8.55313
G1 X119.591 Y94.458 E8.62637
G1 X119.174 Y95.113 E8.69974
G1 X118.693 Y95.721 E8.77301
G1 X118.151 Y96.276 E8.84631
G1 X117.555 Y96.772 E8.91959
G1 X116.911 Y97.205 E8.99292
G1 X116.226 Y97.569 E9.06623
G1 X115.507 Y97.86 E9.13953
G1 X114.762 Y98.076 E9.21283
G1 X113.999 Y98.214 E9.2861
G1 X113.043 Y98.275 E9.37663
G1 X109.958 Y98.275 E9.66816
G1 X109.183 Y98.235 E9.7415
G1 X108.417 Y98.116 E9.81475
G1 X107.667 Y97.918 E9.88805
G1 X106.941 Y97.644 E9.96139
G1 X106.248 Y97.297 E10.03462
G1 X105.594 Y96.88 E10.10792
G1 X104.986 Y96.398 E10.18124
G1 X104.431 Y95.856 E10.25455
G1 X103.934 Y95.26 E10.32789
G1 X103.502 Y94.616 E10.40117
G1 X103.139 Y93.931 E10.47443
G1 X102.847 Y93.212 E10.54776
G1 X102.632 Y92.467 E10.62104
G1 X102.494 Y91.704 E10.69431
G1 X102.433 Y90.748 E10.78484
G1 X102.434 Y87.248 E11.11559
G1 X102.474 Y86.473 E11.18892
G1 X102.594 Y85.707 E11.26219
G1 X102.792 Y84.957 E11.3355
G1 X103.066 Y84.231 E11.40883
G1 X103.413 Y83.538 E11.48207
G1 X103.83 Y82.884 E11.55536
G1 X104.312 Y82.276 E11.62868
G0 F4500 X104.658 Y82.415
G1 F1800 X105.197 Y81.883 E11.70025
G1 X105.79 Y81.411 E11.77187
G1 X106.428 Y81.004 E11.84339
G1 X107.107 Y80.666 E11.91506
G1 X107.816 Y80.402 E11.98656
G1 X108.55 Y80.215 E12.05814
G1 X109.3 Y80.105 E12.12977
G1 X109.959 Y80.075 E12.19211
G1 X113.042 Y80.075 E12.48345
G1 X113.798 Y80.115 E12.555
G1 X114.546 Y80.234 E12.62657
G1 X115.277 Y80.432 E12.69814
G1 X115.984 Y80.706 E12.76979
G1 X116.657 Y81.052 E12.8413
G1 X117.29 Y81.468 E12.91288
G1 X117.876 Y81.948 E12.98447
G1 X118.408 Y82.487 E13.05604
G1 X118.88 Y83.079 E13.12758
G1 X119.287 Y83.718 E13.19918
G1 X119.625 Y84.396 E13.27077
G1 X119.889 Y85.105 E13.34226
G1 X120.077 Y85.839 E13.41387
G1 X120.186 Y86.588 E13.48539
G1 X120.217 Y87.248 E13.54783
G1 X120.218 Y90.748 E13.87858
G1 X120.178 Y91.504 E13.95012
G1 X120.059 Y92.252 E14.0217
G1 X119.862 Y92.983 E14.09324
G1 X119.588 Y93.69 E14.1649
G1 X119.242 Y94.363 E14.23641
G1 X118.826 Y94.996 E14.30799
G1 X118.347 Y95.582 E14.37951
G1 X117.808 Y96.115 E14.45114
G1 X117.216 Y96.587 E14.52269
G1 X116.577 Y96.994 E14.59429
G1 X115.899 Y97.332 E14.66588
G1 X115.19 Y97.596 E14.73737
G1 X114.456 Y97.785 E14.809
G1 X113.707 Y97.894 E14.88052
G1 X113.043 Y97.925 E14.94334
G1 X109.958 Y97.925 E15.23487
G1 X109.202 Y97.885 E15.30641
G1 X108.454 Y97.766 E15.37799
G1 X107.723 Y97.568 E15.44956
G1 X107.016 Y97.294 E15.52121
G1 X106.343 Y96.948 E15.59272
G1 X105.71 Y96.532 E15.6643
G1 X105.124 Y96.052 E15.73589
G1 X104.592 Y95.513 E15.80745
G1 X104.12 Y94.921 E15.879
G1 X103.713 Y94.282 E15.9506
G1 X103.375 Y93.604 E16.02219
G1 X103.111 Y92.895 E16.09368
G1 X102.923 Y92.161 E16.16528
G1 X102.814 Y91.412 E16.23681
G1 X102.783 Y90.748 E16.29963
G1 X102.784 Y87.248 E16.63038
G1 X102.824 Y86.492 E16.70192
G1 X102.944 Y85.744 E16.77351
G1 X103.142 Y85.013 E16.84508
G1 X103.416 Y84.307 E16.91664
G1 X103.762 Y83.633 E16.98824
G1 X104.178 Y83 E17.05982
G1 X104.658 Y82.415 E17.13133
G0 F4500 X105.004 Y82.557
G1 F1800 X105.54 Y82.049 E17.20112
G1 X106.128 Y81.602 E17.27091
G1 X106.761 Y81.221 E17.34073
G1 X107.431 Y80.91 E17.41054
G1 X108.131 Y80.674 E17.48034
G1 X108.852 Y80.515 E17.55012
G1 X109.587 Y80.435 E17.61998
G1 X109.959 Y80.425 E17.65515
G1 X113.042 Y80.425 E17.94649
G1 X113.78 Y80.465 E18.01634
G1 X114.508 Y80.584 E18.08605
G1 X115.22 Y80.782 E18.15588
G1 X115.906 Y81.055 E18.22566
G1 X116.559 Y81.401 E18.29549
G1 X117.171 Y81.815 E18.36531
G1 X117.734 Y82.293 E18.43511
G1 X118.242 Y82.829 E18.50489
G1 X118.689 Y83.417 E18.57469
G1 X119.07 Y84.05 E18.64451
G1 X119.381 Y84.72 E18.71432
G1 X119.617 Y85.42 E18.78412
G1 X119.776 Y86.141 E18.8539
G1 X119.857 Y86.876 E18.92377
G1 X119.867 Y87.248 E18.95894
G1 X119.868 Y90.748 E19.28969
G1 X119.828 Y91.486 E19.35953
G1 X119.709 Y92.215 E19.42934
G1 X119.512 Y92.926 E19.49906
G1 X119.239 Y93.613 E19.56892
G1 X118.893 Y94.265 E19.63867
G1 X118.479 Y94.877 E19.70849
G1 X118.001 Y95.44 E19.77829
G1 X117.465 Y95.949 E19.84814
G1 X116.877 Y96.396 E19.91794
G1 X116.245 Y96.777 E19.98767
G1 X115.575 Y97.088 E20.05748
G1 X114.875 Y97.325 E20.12732
G1 X114.154 Y97.484 E20.19709
G1 X113.419 Y97.565 E20.26697
G1 X113.043 Y97.575 E20.30251
G1 X109.958 Y97.575 E20.59404
G1 X109.22 Y97.535 E20.66389
G1 X108.492 Y97.416 E20.73359
G1 X107.78 Y97.218 E20.80343
G1 X107.094 Y96.945 E20.8732
G1 X106.441 Y96.599 E20.94304
G1 X105.829 Y96.185 E21.01286
G1 X105.266 Y95.707 E21.08266
G1 X104.758 Y95.171 E21.15244
G1 X104.311 Y94.583 E21.22224
G1 X103.93 Y93.95 E21.29206
G1 X103.619 Y93.28 E21.36186
G1 X103.383 Y92.58 E21.43167
G1 X103.224 Y91.859 E21.50144
G1 X103.143 Y91.124 E21.57132
G1 X103.133 Y90.748 E21.60687
G1 X103.134 Y87.248 E21.93762
G1 X103.174 Y86.51 E22.00746
G1 X103.294 Y85.782 E22.07718
G1 X103.492 Y85.07 E22.14702
G1 X103.765 Y84.384 E22.21679
G1 X104.111 Y83.731 E22.28663
G1 X104.526 Y83.12 E22.35643
G1 X105.004 Y82.557 E22.42622
G0 F4500 X104.873 Y83.243
G1 F1800 X105.349 Y82.703 E22.49425
G1 X105.882 Y82.22 E22.56222
G1 X106.465 Y81.799 E22.63018
G1 X107.091 Y81.445 E22.69814
G1 X107.753 Y81.162 E22.76617
G1 X108.442 Y80.955 E22.83416
G1 X109.15 Y80.826 E22.90216
G1 X109.959 Y80.775 E22.97877
G1 X113.042 Y80.775 E23.27011
G1 X113.76 Y80.815 E23.33807
G1 X114.47 Y80.934 E23.4061
G1 X115.162 Y81.132 E23.47412
G1 X115.827 Y81.405 E23.54205
G1 X116.459 Y81.75 E23.61009
G1 X117.048 Y82.163 E23.67807
G1 X117.587 Y82.639 E23.74603
G1 X118.071 Y83.171 E23.81399
G1 X118.492 Y83.754 E23.88195
G1 X118.846 Y84.381 E23.94999
G1 X119.129 Y85.042 E24.01794
G1 X119.336 Y85.731 E24.08593
G1 X119.466 Y86.439 E24.15395
G1 X119.517 Y87.248 E24.23055
G1 X119.518 Y90.748 E24.5613
G1 X119.478 Y91.466 E24.62926
G1 X119.359 Y92.176 E24.69729
G1 X119.162 Y92.868 E24.76528
G1 X118.889 Y93.534 E24.8333
G1 X118.544 Y94.165 E24.90126
G1 X118.131 Y94.754 E24.96924
G1 X117.656 Y95.294 E25.0372
G1 X117.123 Y95.778 E25.10524
G1 X116.54 Y96.199 E25.1732
G1 X115.914 Y96.554 E25.2412
G1 X115.252 Y96.836 E25.3092
G1 X114.564 Y97.044 E25.37713
G1 X113.856 Y97.174 E25.44515
G1 X113.043 Y97.225 E25.52213
G1 X109.958 Y97.225 E25.81366
G1 X109.24 Y97.185 E25.88162
G1 X108.53 Y97.066 E25.94965
G1 X107.838 Y96.868 E26.01767
G1 X107.173 Y96.595 E26.0856
G1 X106.541 Y96.25 E26.15364
G1 X105.952 Y95.837 E26.22162
G1 X105.413 Y95.361 E26.28958
G1 X104.929 Y94.829 E26.35754
G1 X104.508 Y94.246 E26.4255
G1 X104.154 Y93.619 E26.49354
G1 X103.871 Y92.958 E26.56149
G1 X103.664 Y92.269 E26.62948
G1 X103.534 Y91.561 E26.6975
G1 X103.483 Y90.748 E26.77448
G1 X103.484 Y87.248 E27.10523
G1 X103.524 Y86.53 E27.17319
G1 X103.644 Y85.82 E27.24123
G1 X103.841 Y85.129 E27.30914
G1 X104.114 Y84.463 E27.37715
G1 X104.46 Y83.832 E27.44516
G1 X104.873 Y83.243 E27.51314
G0 F4500 X105.22 Y83.37
G1 F1800 X105.693 Y82.855 E27.57922
G1 X106.223 Y82.397 E27.64541
G1 X106.8 Y82.002 E27.71149
G1 X107.42 Y81.676 E27.77769
G1 X108.072 Y81.423 E27.84378
G1 X108.749 Y81.246 E27.90991
G1 X109.441 Y81.147 E27.97597
G1 X109.959 Y81.125 E28.02496
G1 X113.042 Y81.125 E28.31631
G1 X113.741 Y81.165 E28.38247
G1 X114.43 Y81.284 E28.44854
G1 X115.101 Y81.482 E28.51466
G1 X115.746 Y81.754 E28.58081
G1 X116.355 Y82.098 E28.6469
G1 X116.921 Y82.51 E28.71306
G1 X117.436 Y82.983 E28.77914
G1 X117.894 Y83.512 E28.84526
G1 X118.289 Y84.09 E28.91142
G1 X118.615 Y84.709 E28.97753
G1 X118.869 Y85.361 E29.04366
G1 X119.046 Y86.038 E29.10978
G1 X119.145 Y86.731 E29.17594
G1 X119.167 Y87.248 E29.22484
G1 X119.168 Y90.748 E29.55559
G1 X119.128 Y91.447 E29.62175
G1 X119.009 Y92.136 E29.68783
G1 X118.812 Y92.808 E29.754
G1 X118.54 Y93.452 E29.82007
G1 X118.196 Y94.062 E29.88625
G1 X117.784 Y94.628 E29.9524
G1 X117.311 Y95.143 E30.01848
G1 X116.782 Y95.601 E30.0846
G1 X116.205 Y95.996 E30.15068
G1 X115.586 Y96.322 E30.2168
G1 X114.933 Y96.576 E30.28301
G1 X114.257 Y96.754 E30.34907
G1 X113.564 Y96.853 E30.41522
G1 X113.043 Y96.875 E30.4645
G1 X109.958 Y96.875 E30.75603
G1 X109.259 Y96.835 E30.8222
G1 X108.57 Y96.716 E30.88827
G1 X107.899 Y96.518 E30.95438
G1 X107.254 Y96.246 E31.02053
G1 X106.645 Y95.902 E31.08663
G1 X106.079 Y95.49 E31.15279
G1 X105.564 Y95.017 E31.21887
G1 X105.106 Y94.488 E31.28499
G1 X104.711 Y93.91 E31.35115
G1 X104.385 Y93.291 E31.41726
G1 X104.131 Y92.639 E31.48338
G1 X103.954 Y91.962 E31.54951
G1 X103.855 Y91.269 E31.61566
G1 X103.833 Y90.748 E31.66494
G1 X103.834 Y87.248 E31.99569
G1 X103.874 Y86.55 E32.06176
G1 X103.994 Y85.86 E32.12795
G1 X104.191 Y85.189 E32.19403
G1 X104.464 Y84.545 E32.26013
G1 X104.808 Y83.936 E32.32623
G1 X105.22 Y83.37 E32.39239
G0 F4500 X105.567 Y83.501
G1 F1800 X106.037 Y83.011 E32.45655
G1 X106.562 Y82.58 E32.52074
G1 X107.134 Y82.213 E32.58496
G1 X107.745 Y81.916 E32.64916
G1 X108.387 Y81.693 E32.71339
G1 X109.051 Y81.547 E32.77763
G1 X109.959 Y81.475 E32.86371
G1 X113.042 Y81.475 E33.15505
G1 X113.72 Y81.515 E33.21923
G1 X114.389 Y81.634 E33.28345
G1 X115.039 Y81.831 E33.34763
G1 X115.662 Y82.103 E33.41187
G1 X116.248 Y82.447 E33.47608
G1 X116.79 Y82.857 E33.54031
G1 X117.28 Y83.327 E33.60447
G1 X117.711 Y83.852 E33.66866
G1 X118.078 Y84.424 E33.73288
G1 X118.375 Y85.035 E33.79708
G1 X118.599 Y85.677 E33.86134
G1 X118.745 Y86.34 E33.92549
G1 X118.817 Y87.248 E34.01157
G1 X118.818 Y90.748 E34.34232
G1 X118.778 Y91.427 E34.40659
G1 X118.659 Y92.095 E34.47071
G1 X118.462 Y92.746 E34.53499
G1 X118.19 Y93.368 E34.59914
G1 X117.847 Y93.955 E34.66339
G1 X117.438 Y94.497 E34.72756
G1 X116.967 Y94.987 E34.79178
G1 X116.442 Y95.419 E34.85603
G1 X115.871 Y95.785 E34.92013
G1 X115.26 Y96.083 E34.98437
G1 X114.618 Y96.306 E35.04859
G1 X113.955 Y96.453 E35.11277
G1 X113.043 Y96.525 E35.19922
G1 X109.958 Y96.525 E35.49075
G1 X109.28 Y96.485 E35.55493
G1 X108.611 Y96.366 E35.61915
G1 X107.961 Y96.169 E35.68333
G1 X107.338 Y95.897 E35.74757
G1 X106.752 Y95.553 E35.81178
G1 X106.21 Y95.143 E35.87601
G1 X105.72 Y94.673 E35.94017
G1 X105.289 Y94.148 E36.00436
G1 X104.922 Y93.576 E36.06858
G1 X104.625 Y92.965 E36.13278
G1 X104.401 Y92.323 E36.19704
G1 X104.255 Y91.66 E36.26119
G1 X104.183 Y90.748 E36.34764
G1 X104.184 Y87.248 E36.67839
G1 X104.224 Y86.57 E36.74258
G1 X104.344 Y85.901 E36.80681
G1 X104.541 Y85.251 E36.87099
G1 X104.813 Y84.629 E36.93514
G1 X105.157 Y84.042 E36.99944
G1 X105.567 Y83.501 E37.06359
G0 F4500 X105.913 Y83.636
G1 F1800 X106.38 Y83.173 E37.12573
G1 X106.901 Y82.769 E37.18803
G1 X107.466 Y82.432 E37.2502
G1 X108.068 Y82.165 E37.31244
G1 X108.698 Y81.973 E37.37467
G1 X109.347 Y81.86 E37.43693
G1 X109.959 Y81.825 E37.49486
G1 X113.042 Y81.825 E37.7862
G1 X113.699 Y81.865 E37.8484
G1 X114.347 Y81.984 E37.91066
G1 X114.975 Y82.181 E37.97286
G1 X115.575 Y82.453 E38.03511
G1 X116.138 Y82.795 E38.09736
G1 X116.655 Y83.203 E38.1596
G1 X117.118 Y83.67 E38.22175
G1 X117.522 Y84.191 E38.28405
G1 X117.86 Y84.756 E38.34627
G1 X118.126 Y85.358 E38.40846
G1 X118.318 Y85.988 E38.4707
G1 X118.432 Y86.636 E38.53288
G1 X118.467 Y87.248 E38.5908
G1 X118.468 Y90.748 E38.92155
G1 X118.428 Y91.406 E38.98385
G1 X118.309 Y92.053 E39.04602
G1 X118.112 Y92.682 E39.1083
G1 X117.841 Y93.282 E39.17052
G1 X117.499 Y93.844 E39.23269
G1 X117.091 Y94.361 E39.29493
G1 X116.624 Y94.825 E39.35714
G1 X116.104 Y95.229 E39.41937
G1 X115.539 Y95.567 E39.48158
G1 X114.937 Y95.834 E39.54382
G1 X114.307 Y96.026 E39.60605
G1 X113.658 Y96.14 E39.66832
G1 X113.043 Y96.175 E39.72654
G1 X109.958 Y96.175 E40.01807
G1 X109.301 Y96.135 E40.08027
G1 X108.653 Y96.016 E40.14253
G1 X108.025 Y95.819 E40.20473
G1 X107.425 Y95.547 E40.26698
G1 X106.862 Y95.205 E40.32923
G1 X106.345 Y94.797 E40.39147
G1 X105.882 Y94.33 E40.45361
G1 X105.478 Y93.809 E40.51592
G1 X105.14 Y93.244 E40.57813
G1 X104.874 Y92.642 E40.64033
G1 X104.682 Y92.012 E40.70257
G1 X104.568 Y91.364 E40.76474
G1 X104.533 Y90.748 E40.82305
G1 X104.534 Y87.248 E41.1538
G1 X104.574 Y86.591 E41.216
G1 X104.694 Y85.944 E41.27819
G1 X104.891 Y85.315 E41.34047
G1 X105.162 Y84.716 E41.4026
G1 X105.505 Y84.153 E41.4649
G1 X105.913 Y83.636 E41.52714
G0 F4500 X106.259 Y83.777
G1 F1800 X106.723 Y83.341 E41.58731
G1 X107.238 Y82.966 E41.64751
G1 X107.796 Y82.659 E41.7077
G1 X108.388 Y82.424 E41.76789
G1 X109.005 Y82.266 E41.82807
G1 X109.636 Y82.185 E41.88819
G1 X109.959 Y82.175 E41.91873
G1 X113.042 Y82.175 E42.21007
G1 X113.678 Y82.215 E42.27029
G1 X114.303 Y82.334 E42.33042
G1 X114.909 Y82.531 E42.39064
G1 X115.485 Y82.802 E42.45079
G1 X116.023 Y83.143 E42.51098
G1 X116.514 Y83.549 E42.57119
G1 X116.95 Y84.013 E42.63136
G1 X117.325 Y84.528 E42.69156
G1 X117.632 Y85.085 E42.75166
G1 X117.867 Y85.677 E42.81186
G1 X118.026 Y86.294 E42.87207
G1 X118.107 Y86.926 E42.93228
G1 X118.117 Y87.249 E42.96282
G1 X118.118 Y90.749 E43.29357
G1 X118.078 Y91.384 E43.35369
G1 X117.959 Y92.01 E43.41391
G1 X117.763 Y92.616 E43.4741
G1 X117.492 Y93.192 E43.53425
G1 X117.151 Y93.73 E43.59445
G1 X116.745 Y94.221 E43.65465
G1 X116.282 Y94.657 E43.71475
G1 X115.767 Y95.032 E43.77496
G1 X115.209 Y95.34 E43.83519
